images/icons/phone_icon.svg

<svg width="45" height="45" viewBox="0 0 45 45" fill="none" xmlns="http://www.w3.org/2000/svg">
<circle cx="22.5" cy="22.5" r="22.5" fill="#1F4373"/>
<path d="M11.25 12.5625C11.25 12.1875 11.375 11.875 11.625 11.625C11.875 11.375 12.1875 11.25 12.5625 11.25H17.625C17.9167 11.25 18.1721 11.3437 18.3913 11.5312C18.6104 11.7187 18.7508 11.9583 18.8125 12.25L19.6875 16.5625C19.7292 16.8542 19.7029 17.1512 19.6088 17.4537C19.5146 17.7562 19.3742 18.0008 19.1875 18.1875L16.25 21.125C17.2083 22.7083 18.3438 24.1562 19.6562 25.4688C20.9688 26.7812 22.375 27.875 23.875 28.75L26.9375 25.75C27.125 25.5625 27.3388 25.4425 27.5788 25.39C27.8188 25.3375 28.0842 25.3325 28.375 25.375L32.75 26.1875C33.0417 26.2292 33.2813 26.3646 33.4688 26.5938C33.6563 26.8229 33.75 27.0833 33.75 27.375V32.4375C33.75 32.8125 33.625 33.125 33.375 33.375C33.125 33.625 32.8125 33.75 32.4375 33.75C29.75 33.75 27.13 33.1508 24.5775 31.9525C22.025 30.7542 19.7646 29.1708 17.7963 27.2025C15.8279 25.2342 14.2446 22.9738 13.0462 20.4212C11.8479 17.8687 11.2492 15.2492 11.25 12.5625Z" fill="white"/>
</svg>

<svg xmlns="http://www.w3.org/2000/svg" width="45" height="45" fill="none"><circle cx="22.5" cy="22.5" r="22.5" fill="#1f4373"/><path fill="#fff" d="M11.25 12.563a1.27 1.27 0 0 1 1.313-1.312h5.063a1.14 1.14 0 0 1 .766.281c.219.188.36.427.421.719l.875 4.313a2.01 2.01 0 0 1-.079.891 1.764 1.764 0 0 1-.421.734l-2.937 2.938c.958 1.583 2.094 3.031 3.406 4.344s2.719 2.406 4.219 3.281l3.063-3c.188-.187.401-.308.641-.36s.505-.058.796-.015l4.375.813a1.1 1.1 0 0 1 .719.406 1.2 1.2 0 0 1 .281.781v5.063a1.27 1.27 0 0 1-1.312 1.313c-2.687 0-5.308-.599-7.86-1.797s-4.813-2.782-6.781-4.75-3.552-4.229-4.75-6.781-1.797-5.172-1.796-7.859z"/></svg>
